status/bluetooth-disabled-symbolic.svg

<?xml version="1.0" encoding="UTF-8" standalone="no"?>
<!-- Created with Inkscape (http://www.inkscape.org/) -->

<svg
   xmlns:dc="http://purl.org/dc/elements/1.1/"
   xmlns:cc="http://creativecommons.org/ns#"
   xmlns:rdf="http://www.w3.org/1999/02/22-rdf-syntax-ns#"
   xmlns:svg="http://www.w3.org/2000/svg"
   xmlns="http://www.w3.org/2000/svg"
   xmlns:sodipodi="http://sodipodi.sourceforge.net/DTD/sodipodi-0.dtd"
   xmlns:inkscape="http://www.inkscape.org/namespaces/inkscape"
   width="16"
   height="16"
   id="svg4152"
   version="1.1"
   inkscape:version="0.92.2 5c3e80d, 2017-08-06"
   viewBox="0 0 16 16"
   sodipodi:docname="bluetooth-disabled-symbolic.svg">
  <defs
     id="defs4154" />
  <sodipodi:namedview
     id="base"
     pagecolor="#ededed"
     bordercolor="#000000"
     borderopacity="0.49803922"
     inkscape:pageopacity="0"
     inkscape:pageshadow="2"
     inkscape:zoom="31.392433"
     inkscape:cx="5.2060521"
     inkscape:cy="5.6433778"
     inkscape:current-layer="layer1"
     showgrid="true"
     inkscape:grid-bbox="true"
     inkscape:document-units="px"
     inkscape:showpageshadow="false"
     borderlayer="true"
     inkscape:window-width="1920"
     inkscape:window-height="1012"
     inkscape:window-x="0"
     inkscape:window-y="32"
     inkscape:window-maximized="1">
    <inkscape:grid
       type="xygrid"
       id="grid4700"
       color="#000000"
       opacity="0.0627451"
       empcolor="#000000"
       empopacity="0.1254902"
       empspacing="4"
       spacingx="2"
       spacingy="2" />
  </sodipodi:namedview>
  <metadata
     id="metadata4157">
    <rdf:RDF>
      <cc:Work
         rdf:about="">
        <dc:format>image/svg+xml</dc:format>
        <dc:type
           rdf:resource="http://purl.org/dc/dcmitype/StillImage" />
        <dc:title />
      </cc:Work>
    </rdf:RDF>
  </metadata>
  <g
     id="layer1"
     inkscape:label="Layer 1"
     inkscape:groupmode="layer">
    <path
       style="color:#000000;font-style:normal;font-variant:normal;font-weight:normal;font-stretch:normal;font-size:medium;line-height:normal;font-family:sans-serif;font-variant-ligatures:normal;font-variant-position:normal;font-variant-caps:normal;font-variant-numeric:normal;font-variant-alternates:normal;font-feature-settings:normal;text-indent:0;text-align:start;text-decoration:none;text-decoration-line:none;text-decoration-style:solid;text-decoration-color:#000000;letter-spacing:normal;word-spacing:normal;text-transform:none;writing-mode:lr-tb;direction:ltr;text-orientation:mixed;dominant-baseline:auto;baseline-shift:baseline;text-anchor:start;white-space:normal;shape-padding:0;clip-rule:nonzero;display:inline;overflow:visible;visibility:visible;opacity:1;isolation:auto;mix-blend-mode:normal;color-interpolation:sRGB;color-interpolation-filters:linearRGB;solid-color:#000000;solid-opacity:1;vector-effect:none;fill:#000000;fill-opacity:1;fill-rule:nonzero;stroke:none;stroke-width:2;stroke-linecap:round;stroke-linejoin:round;stroke-miterlimit:4;stroke-dasharray:none;stroke-dashoffset:0;stroke-opacity:1;color-rendering:auto;image-rendering:auto;shape-rendering:auto;text-rendering:auto;enable-background:accumulate"
       d="M 4.984375,0 A 1.0001,1.0001 0 0 0 4,1 V 5.5859375 L 2.2070312,3.7929688 A 1.0001,1.0001 0 1 0 0.7929688,5.2070312 L 3.5859375,8 0.7929688,10.792969 a 1.0001,1.0001 0 1 0 1.4140624,1.414062 L 4,10.414062 V 15 a 1.0001,1.0001 0 0 0 1.7070312,0.707031 l 3.4999998,-3.5 a 1.0001,1.0001 0 0 0 0,-1.414062 L 6.4140625,8 9.207031,5.2070312 a 1.0001,1.0001 0 0 0 0,-1.4140624 L 5.7070312,0.29296875 A 1.0001,1.0001 0 0 0 4.984375,0 Z M 6,3.4140625 7.085938,4.5 6,5.5859375 Z M 6,10.414062 7.085938,11.5 6,12.585938 Z"
       id="path814"
       inkscape:connector-curvature="0" />
    <path
       style="color:#000000;font-style:normal;font-variant:normal;font-weight:normal;font-stretch:normal;font-size:medium;line-height:normal;font-family:sans-serif;font-variant-ligatures:normal;font-variant-position:normal;font-variant-caps:normal;font-variant-numeric:normal;font-variant-alternates:normal;font-feature-settings:normal;text-indent:0;text-align:start;text-decoration:none;text-decoration-line:none;text-decoration-style:solid;text-decoration-color:#000000;letter-spacing:normal;word-spacing:normal;text-transform:none;writing-mode:lr-tb;direction:ltr;text-orientation:mixed;dominant-baseline:auto;baseline-shift:baseline;text-anchor:start;white-space:normal;shape-padding:0;clip-rule:nonzero;display:inline;overflow:visible;visibility:visible;opacity:1;isolation:auto;mix-blend-mode:normal;color-interpolation:sRGB;color-interpolation-filters:linearRGB;solid-color:#000000;solid-opacity:1;vector-effect:none;fill:#000000;fill-opacity:1;fill-rule:nonzero;stroke:none;stroke-width:2;stroke-linecap:round;stroke-linejoin:round;stroke-miterlimit:4;stroke-dasharray:none;stroke-dashoffset:0;stroke-opacity:1;color-rendering:auto;image-rendering:auto;shape-rendering:auto;text-rendering:auto;enable-background:accumulate"
       d="m 11.990234,10.990234 a 1.0001,1.0001 0 0 0 -0.697265,1.716797 L 12.085938,13.5 11.292969,14.292969 a 1.0001,1.0001 0 1 0 1.414062,1.414062 L 13.5,14.914062 l 0.792969,0.792969 a 1.0001,1.0001 0 1 0 1.414062,-1.414062 L 14.914062,13.5 15.707031,12.707031 a 1.0001,1.0001 0 0 0 -0.726562,-1.716797 1.0001,1.0001 0 0 0 -0.6875,0.302735 L 13.5,12.085938 12.707031,11.292969 a 1.0001,1.0001 0 0 0 -0.716797,-0.302735 z"
       id="path815"
       inkscape:connector-curvature="0" />
  </g>
</svg>

<svg xmlns="http://www.w3.org/2000/svg" width="16" height="16">
    <path d="M4.984 0A1 1 0 0 0 4 1v4.586L2.207 3.793A1 1 0 1 0 .793 5.207L3.586 8 .793 10.793a1 1 0 1 0 1.414 1.414L4 10.414V15a1 1 0 0 0 1.707.707l3.5-3.5a1 1 0 0 0 0-1.414L6.414 8l2.793-2.793a1 1 0 0 0 0-1.414l-3.5-3.5A1 1 0 0 0 4.984 0zM6 3.414L7.086 4.5 6 5.586zm0 7L7.086 11.5 6 12.586zM11.99 10.99a1 1 0 0 0-.697 1.717l.793.793-.793.793a1 1 0 1 0 1.414 1.414l.793-.793.793.793a1 1 0 1 0 1.414-1.414l-.793-.793.793-.793a1 1 0 0 0-.727-1.717 1 1 0 0 0-.687.303l-.793.793-.793-.793a1 1 0 0 0-.717-.303z"/>
</svg>
